www/assets/images/test_icons/flags/RW.svg

<svg fill="none" height="15" viewBox="0 0 21 15" width="21" xmlns="http://www.w3.org/2000/svg" xmlns:xlink="http://www.w3.org/1999/xlink"><mask id="a" height="15" maskUnits="userSpaceOnUse" width="21" x="0" y="0"><path d="m19 0h-17c-1.10457 0-2 .89543-2 2v11c0 1.1046.89543 2 2 2h17c1.1046 0 2-.8954 2-2v-11c0-1.10457-.8954-2-2-2z" fill="#fff"/></mask><g mask="url(#a)"><path d="m19 0h-17c-1.10457 0-2 .89543-2 2v11c0 1.1046.89543 2 2 2h17c1.1046 0 2-.8954 2-2v-11c0-1.10457-.8954-2-2-2z" fill="#fbd400"/><g clip-rule="evenodd" fill-rule="evenodd"><path d="m0 11h21v4h-21z" fill="#1d613c"/><path d="m0 0h21v7h-21z" fill="#00a0e1"/><path d="m16.974 3.974c.596-.066 1.026-.254 1.026-.474s-.43-.408-1.026-.474c-.066-.596-.254-1.026-.474-1.026s-.408.43-.474 1.026c-.596.066-1.026.254-1.026.474s.43.408 1.026.474c.066.596.254 1.026.474 1.026s.408-.43.474-1.026z" fill="#fbd400"/></g><path d="m19 .5h-17c-.82843 0-1.5.67157-1.5 1.5v11c0 .8284.67157 1.5 1.5 1.5h17c.8284 0 1.5-.6716 1.5-1.5v-11c0-.82843-.6716-1.5-1.5-1.5z" stroke="#000" stroke-opacity=".1"/></g></svg>

<svg width="21" height="15" viewBox="0 0 21 15" fill="none" xmlns="http://www.w3.org/2000/svg">
<mask id="mask0_3_52" style="mask-type:alpha" maskUnits="userSpaceOnUse" x="0" y="0" width="21" height="15">
<path d="M19 0H2C0.89543 0 0 0.89543 0 2V13C0 14.1046 0.89543 15 2 15H19C20.1046 15 21 14.1046 21 13V2C21 0.89543 20.1046 0 19 0Z" fill="white"/>
</mask>
<g mask="url(#mask0_3_52)">
<path d="M19 0H2C0.89543 0 0 0.89543 0 2V13C0 14.1046 0.89543 15 2 15H19C20.1046 15 21 14.1046 21 13V2C21 0.89543 20.1046 0 19 0Z" fill="#FBD400"/>
<path fill-rule="evenodd" clip-rule="evenodd" d="M0 11H21V15H0V11Z" fill="#1D613C"/>
<path fill-rule="evenodd" clip-rule="evenodd" d="M0 0H21V7H0V0Z" fill="#00A0E1"/>
<path fill-rule="evenodd" clip-rule="evenodd" d="M16.974 3.974C17.57 3.908 18 3.72 18 3.5C18 3.28 17.57 3.092 16.974 3.026C16.908 2.43 16.72 2 16.5 2C16.28 2 16.092 2.43 16.026 3.026C15.43 3.092 15 3.28 15 3.5C15 3.72 15.43 3.908 16.026 3.974C16.092 4.57 16.28 5 16.5 5C16.72 5 16.908 4.57 16.974 3.974Z" fill="#FBD400"/>
<path d="M19 0.5H2C1.17157 0.5 0.5 1.17157 0.5 2V13C0.5 13.8284 1.17157 14.5 2 14.5H19C19.8284 14.5 20.5 13.8284 20.5 13V2C20.5 1.17157 19.8284 0.5 19 0.5Z" stroke="black" stroke-opacity="0.1"/>
</g>
</svg>
